.local/share/icons/Gruvbox-Plus-Dark/panel/16/whatsapp-warning.svg

<svg xmlns="http://www.w3.org/2000/svg" width="16" height="16" version="1.1">
 <defs>
  <style id="current-color-scheme" type="text/css">
   .ColorScheme-Text { color:#ebdbb2; } .ColorScheme-Highlight { color:#458588; }
  </style>
 </defs>
 <path style="fill:currentColor" class="ColorScheme-Highlight" d="M 8 1 C 7.831125 1 7.665375 1.0079813 7.5 1.0195312 C 7.479 1.0211062 7.4585 1.0216875 7.4375 1.0234375 C 4.937275 1.22075 2.8179969 2.7233875 1.7480469 4.8515625 C 1.6788344 4.989375 1.6090281 5.1286844 1.5488281 5.2714844 C 1.2211406 6.0114719 1.0421406 6.795475 1.0097656 7.6171875 C 1.0083656 7.6443125 1.0069969 7.6710156 1.0058594 7.6972656 C 1.0036719 7.7760156 1.0014281 7.8539688 1.0019531 7.9335938 C 1.0016906 7.9554687 1 7.978125 1 8 C 1 8.81375 1.1452125 9.5910313 1.3984375 10.316406 C 1.5002875 10.641906 1.6181031 10.970234 1.7597656 11.302734 C 2.1125656 12.132234 2.1551719 12.356703 2.0996094 13.048828 C 2.0609344 13.531828 1.9310281 14.025359 1.7675781 14.302734 C 1.6193531 14.553859 1.5 14.815234 1.5 14.880859 C 1.5 15.085609 2.6801219 15.013844 3.7246094 14.746094 C 4.9482094 14.432844 5.0553187 14.432997 6.0585938 14.748047 C 6.5175313 14.892372 7.0400594 14.969234 7.6308594 14.990234 C 7.6553594 14.992034 7.6805781 14.991288 7.7050781 14.992188 C 7.7855781 14.994787 7.8660937 15 7.9492188 15 L 7.9667969 15 L 8 15 C 8.195125 15 8.3884531 14.989489 8.5800781 14.974609 C 10.310828 14.851234 11.700797 14.211516 12.951172 12.962891 C 13.981922 11.933891 14.621047 10.663984 14.873047 9.3339844 C 14.896677 9.2132344 14.915021 9.0901719 14.931641 8.9667969 C 14.942141 8.8906719 14.953057 8.8144062 14.960938 8.7382812 C 14.977557 8.5746563 14.986927 8.4093125 14.992188 8.2421875 C 14.993887 8.2001875 14.996094 8.1591875 14.996094 8.1171875 C 14.996964 8.0778175 15 8.039375 15 8 C 15 4.18675 11.981234 1.1076219 8.1933594 1.0058594 C 8.1636094 1.0045469 8.1332656 1.0043438 8.1035156 1.0039062 C 8.0685156 1.0033812 8.035 1 8 1 z M 5.5 4 C 6.3284 4 7 4.6715 7 5.5 C 7 6 7 7 6 7 C 6 8 8.032 9.946 9 10 C 9 9 10 9 10.5 9 C 11.328 9 12 9.672 12 10.5 C 12 11.328 11.328 12 10.5 12 L 9.9394531 12 C 9.6434531 11.993 9.2975 11.884031 8.8125 11.707031 C 7.1895 11.115031 6.0628031 10.165062 4.9082031 8.4140625 C 4.2356031 7.3940625 4.0036 6.7806781 4 6.0175781 L 4 5.5 C 4 4.6715 4.6716 4 5.5 4 z"/>
</svg>

<svg width="16" height="16" version="1.1" xmlns="http://www.w3.org/2000/svg">
  <defs>
    <style id="current-color-scheme" type="text/css">.ColorScheme-Text { color:#ebdbb2; } .ColorScheme-Highlight { color:#458588; } .ColorScheme-NeutralText { color:#fe8019; } .ColorScheme-PositiveText { color:#689d6a; } .ColorScheme-NegativeText { color:#fb4934; }</style>
  </defs>
  <path class="ColorScheme-NeutralText" d="m8 1c-3.866 0-7 3.134-7 7 0.01549 1.414 0.5439 2.796 0.7598 3.303 0.3528 0.8295 0.3954 1.054 0.3398 1.746-0.09566 1.194-0.5996 1.573-0.5996 1.832 0 0.2048 1.18 0.133 2.225-0.1348 1.224-0.3132 1.331-0.3131 2.334 2e-3 0.6382 0.2006 1.882 0.2497 1.941 0.2519 3.866 0 7-3.134 7-7s-3.134-7-7-7zm-2.5 3c0.8284 0 1.5 0.6715 1.5 1.5 0 0.5-2e-6 1.5-1 1.5 0 1 2.032 2.946 3 3 0-1 1-1 1.5-1 0.828 0 1.5 0.672 1.5 1.5 0 0.828-0.672 1.5-1.5 1.5-0.5971 0.06549-1.128-0.1137-1.688-0.293-1.623-0.592-2.75-1.542-3.904-3.293-0.6897-0.8771-0.8964-1.842-0.9082-2.914 0-0.8285 0.6716-1.5 1.5-1.5z" fill="currentColor"/>
</svg>
